icon-themes/elementary_svg/sw/res/sidebar/pageproppanel/Landscapecopy_24x24.svg

<svg viewBox="0 0 24 24" xmlns="http://www.w3.org/2000/svg" xmlns:xlink="http://www.w3.org/1999/xlink"><radialGradient id="a" cx="605.71399" cy="486.64801" gradientTransform="matrix(0 0 0 0 3.503 295.672)" gradientUnits="userSpaceOnUse" r="117.143" xlink:href="#b"/><linearGradient id="b"><stop offset="0"/><stop offset="1" stop-opacity="0"/></linearGradient><radialGradient id="c" cx="62.625" cy="4.625" gradientTransform="matrix(.15 0 0 .04 -4.59 296.34)" gradientUnits="userSpaceOnUse" r="10.625" xlink:href="#b"/><linearGradient id="d" gradientTransform="matrix(.13 0 0 .1 -261.43 -13.52)" gradientUnits="userSpaceOnUse" x1="2082.573" x2="2082.573" y1="3213.947" y2="3247.2981"><stop offset="0" stop-color="#64baff"/><stop offset="1" stop-color="#3689e6"/></linearGradient><linearGradient id="e" gradientUnits="userSpaceOnUse" x1="5.4027" x2="5.0434999" y1="294.0802999" y2="294.6389999"><stop offset="0" stop-color="#fff"/><stop offset="0" stop-color="#fff" stop-opacity=".235"/><stop offset=".539" stop-color="#fff" stop-opacity=".157"/><stop offset="1" stop-color="#fff" stop-opacity=".392"/></linearGradient><linearGradient id="f" gradientUnits="userSpaceOnUse" x1="5.1612" x2="5.1612" xlink:href="#g" y1="293.4767" y2="295.1522999"/><linearGradient id="g"><stop offset="0" stop-color="#fff"/><stop offset=".5" stop-color="#fff" stop-opacity=".235"/><stop offset=".75" stop-color="#fff" stop-opacity=".157"/><stop offset="1" stop-color="#fff" stop-opacity=".392"/></linearGradient><linearGradient id="h" gradientUnits="userSpaceOnUse" x1="5.215" x2="5.215" xlink:href="#g" y1="296.2396999" y2="294.5916"/><linearGradient id="i" gradientTransform="matrix(.04349113 0 0 .0082353 -1.718936 18.980547)" gradientUnits="userSpaceOnUse" x1="302.85715" x2="302.85715" y1="366.64789" y2="609.50507"><stop offset="0" stop-opacity="0"/><stop offset=".5"/><stop offset="1" stop-opacity="0"/></linearGradient><radialGradient id="j" cx="605.71429" cy="486.64789" gradientTransform="matrix(-.01204859 0 0 .0082353 10.761206 18.980564)" gradientUnits="userSpaceOnUse" r="117.14286" xlink:href="#b"/><radialGradient id="k" cx="605.71429" cy="486.64789" gradientTransform="matrix(.01204859 0 0 .0082353 17.238794 18.980564)" gradientUnits="userSpaceOnUse" r="117.14286" xlink:href="#b"/><linearGradient id="l" gradientTransform="matrix(0 .48571543 -.45629666 0 23.651133 .342824)" gradientUnits="userSpaceOnUse" x1="9.848163" x2="44.18507" y1="29.289719" y2="26.732151"><stop offset="0" stop-color="#f4f4f4"/><stop offset="1" stop-color="#dbdbdb"/></linearGradient><linearGradient id="m" gradientTransform="matrix(0 .40540511 -.51351351 0 24.32432 2.269687)" gradientUnits="userSpaceOnUse" x1="4.843375" x2="39.786461" y1="23.277712" y2="24.30217"><stop offset="0" stop-color="#fff"/><stop offset=".13011844" stop-color="#fff" stop-opacity=".235294"/><stop offset="1" stop-color="#fff" stop-opacity=".156863"/><stop offset="1" stop-color="#fff" stop-opacity=".392157"/></linearGradient><g transform="translate(-2 -2)"><path d="m3.500001 22h21v2h-21z" fill="url(#i)" opacity=".15"/><path d="m3.4999999 22.000085v1.999891c-.6204724.0038-1.4999999-.448075-1.4999999-1.000075 0-.551999.6924-.999816 1.4999999-.999816z" fill="url(#j)" opacity=".15"/><path d="m24.5 22.000085v1.999891c.620472.0038 1.5-.448075 1.5-1.000075 0-.551999-.6924-.999816-1.5-.999816z" fill="url(#k)" opacity=".15"/></g><path d="m22.500038 3.499955c0 3.8955809-.0014 17.000059-.0014 17.000059l-20.998716.000021s0-11.3333863 0-17.00008h21.000054z" fill="url(#l)"/><path d="m2.4999999 19.5v-15.0000003h19.0000001v15.0000003z" fill="none" stroke="url(#m)" stroke-linecap="round"/><path d="m22.500038 3.499955c0 3.8955809-.0014 17.000059-.0014 17.000059l-20.998716.000021s0-11.3333863 0-17.00008h21.000054z" fill="none" opacity=".3" stroke="#000" stroke-linejoin="round" stroke-width=".999922"/><g transform="scale(3.7795275)"><path d="m5.424 296.47v.53c.164 0 .397-.12.397-.265 0-.146-.18-.264-.395-.264z" fill="url(#a)" opacity=".15" transform="translate(0 -290.6)"/><path d="m6.35 296.55c0 .263-.71.476-1.587.476s-1.588-.213-1.588-.476.71-.476 1.587-.476 1.588.213 1.588.476z" fill="url(#c)" fill-rule="evenodd" opacity=".3" transform="translate(0 -290.6)"/><path d="m4.842 293.455v.478c-.027 0-.053-.003-.08-.003-.745 0-1.35.605-1.35 1.35s.605 1.35 1.35 1.35c.715 0 1.305-.558 1.347-1.27h-.64c-.005.042-.014.082-.026.12l-.004.014c-.01.037-.026.073-.043.107l-.01.018c-.017.032-.037.063-.06.093l-.012.016c-.023.03-.048.057-.076.082l-.014.012c-.03.023-.06.047-.093.067l-.008.004c-.032.02-.066.038-.1.05l-.013.008c-.036.013-.072.023-.11.03-.006.003-.013.004-.02.005-.04.007-.083.012-.126.012-.048 0-.095-.005-.14-.015 0 0-.002 0-.003-.002h-.001c-.043-.01-.086-.023-.126-.04l-.01-.004c-.04-.017-.076-.037-.11-.06l-.008-.004c-.035-.024-.068-.052-.1-.082l-.005-.007c-.03-.027-.055-.06-.08-.094l-.01-.012c-.02-.033-.04-.067-.055-.103l-.01-.02c-.015-.037-.027-.076-.035-.115l-.004-.02c-.008-.043-.013-.088-.013-.135 0-.05.005-.097.014-.143l.002-.005c.01-.043.02-.086.04-.126l.003-.01c.017-.04.037-.077.06-.112l.004-.006c.024-.035.052-.068.082-.098l.006-.007c.028-.03.06-.056.095-.08l.013-.01c.033-.02.068-.04.104-.056l.022-.01c.036-.014.074-.026.114-.034l.02-.004c.042-.01.088-.016.134-.016.028 0 .054.002.08.005v.47l1.233-.794z" fill="url(#d)" opacity=".99" transform="translate(0 -290.6)"/><g fill="none" stroke-width=".26"><path d="m5 294.188v-.443l.782.506-.783.5v-.4" opacity=".5" stroke="url(#e)" transform="translate(0 -290.6)"/><path d="m5.936 295.446a1.187 1.187 0 0 1 -1.33 1.016 1.187 1.187 0 0 1 -1.026-1.32 1.187 1.187 0 0 1 1.313-1.038" opacity=".5" stroke="url(#f)" transform="translate(0 -290.6)"/><path d="m4.842 2.805v.478c-.027 0-.053-.003-.08-.003-.745 0-1.35.605-1.35 1.35s.605 1.35 1.35 1.35c.715 0 1.305-.558 1.347-1.27h-.64c-.005.042-.014.082-.026.12l-.004.014c-.01.037-.026.073-.043.107l-.01.018c-.017.032-.037.063-.06.093l-.012.017c-.023.03-.048.056-.076.08l-.014.013c-.03.024-.06.047-.093.067l-.008.005c-.032.02-.066.036-.1.05l-.013.005c-.036.015-.072.024-.11.032l-.02.003c-.04.007-.083.012-.126.012-.048 0-.095-.005-.14-.015h-.004c-.043-.01-.085-.02-.125-.038l-.012-.004c-.04-.018-.077-.037-.112-.06l-.005-.004c-.036-.024-.07-.052-.1-.082l-.006-.007c-.03-.03-.057-.062-.08-.096l-.01-.015c-.02-.033-.04-.068-.057-.105l-.003-.02c-.015-.036-.027-.075-.036-.114l-.005-.02c-.01-.042-.015-.087-.015-.134 0-.05.005-.096.015-.142v-.005c.01-.043.023-.085.04-.126l.004-.01c.017-.04.037-.08.06-.114l.005-.006c.02-.034.05-.067.08-.098l.006-.007c.03-.03.062-.055.096-.08l.012-.008c.033-.023.068-.04.104-.057l.02-.01c.037-.014.076-.026.115-.035l.02-.004c.044-.006.09-.01.135-.01.027 0 .054 0 .08.004v.472l1.237-.796z" opacity=".5" stroke="#002e99" stroke-linecap="round" stroke-linejoin="round"/><path d="m5.996 295.518h-.39c-.123.432-.557.706-1.006.62-.472-.09-.783-.543-.697-1.016.087-.473.538-.787 1.012-.704" opacity=".5" stroke="url(#h)" transform="translate(0 -290.6)"/></g></g></svg>

<?xml version="1.0" encoding="UTF-8" standalone="no"?>
<svg
   xmlns:dc="http://purl.org/dc/elements/1.1/"
   xmlns:cc="http://creativecommons.org/ns#"
   xmlns:rdf="http://www.w3.org/1999/02/22-rdf-syntax-ns#"
   xmlns:svg="http://www.w3.org/2000/svg"
   xmlns="http://www.w3.org/2000/svg"
   xmlns:xlink="http://www.w3.org/1999/xlink"
   xmlns:sodipodi="http://sodipodi.sourceforge.net/DTD/sodipodi-0.dtd"
   xmlns:inkscape="http://www.inkscape.org/namespaces/inkscape"
   viewBox="0 0 24 24"
   version="1.1"
   id="svg66"
   sodipodi:docname="Landscapecopy_24x24.svg"
   inkscape:version="0.92.3 (unknown)"
   inkscape:export-filename="/home/rizmut/Dokumen/Rizmut/Github/libreoffice-style-elementary/images_elementary/sw/res/sidebar/pageproppanel/Landscapecopy_24x24.png"
   inkscape:export-xdpi="96"
   inkscape:export-ydpi="96">
  <metadata
     id="metadata72">
    <rdf:RDF>
      <cc:Work
         rdf:about="">
        <dc:format>image/svg+xml</dc:format>
        <dc:type
           rdf:resource="http://purl.org/dc/dcmitype/StillImage" />
        <dc:title></dc:title>
      </cc:Work>
    </rdf:RDF>
  </metadata>
  <defs
     id="defs70">
    <radialGradient
       id="j"
       cx="605.71399"
       cy="486.64801"
       gradientTransform="matrix(0,0,0,0,3.503,295.672)"
       gradientUnits="userSpaceOnUse"
       r="117.143"
       xlink:href="#a-3" />
    <linearGradient
       id="a-3">
      <stop
         offset="0"
         id="stop855" />
      <stop
         offset="1"
         stop-opacity="0"
         id="stop857" />
    </linearGradient>
    <radialGradient
       gradientTransform="matrix(0.15,0,0,0.04,-4.59,296.34)"
       gradientUnits="userSpaceOnUse"
       xlink:href="#a-3"
       id="k"
       fy="4.625"
       fx="62.625"
       r="10.625"
       cy="4.625"
       cx="62.625" />
    <linearGradient
       xlink:href="#c-6"
       id="l"
       gradientUnits="userSpaceOnUse"
       gradientTransform="matrix(0.13,0,0,0.1,-261.43,-13.52)"
       x1="2082.573"
       y1="3213.947"
       x2="2082.573"
       y2="3247.2981" />
    <linearGradient
       id="c-6">
      <stop
         offset="0"
         stop-color="#64baff"
         id="stop886" />
      <stop
         offset="1"
         stop-color="#3689e6"
         id="stop888" />
    </linearGradient>
    <linearGradient
       y2="33.389999"
       x2="26.434999"
       y1="27.802999"
       x1="30.027"
       gradientTransform="matrix(0.1,0,0,0.1,2.4,291.3)"
       gradientUnits="userSpaceOnUse"
       id="m"
       xlink:href="#d-7" />
    <linearGradient
       id="d-7">
      <stop
         offset="0"
         stop-color="#fff"
         id="stop892" />
      <stop
         offset="0"
         stop-color="#fff"
         stop-opacity=".235"
         id="stop894" />
      <stop
         offset=".539"
         stop-color="#fff"
         stop-opacity=".157"
         id="stop896" />
      <stop
         offset="1"
         stop-color="#fff"
         stop-opacity=".392"
         id="stop898" />
    </linearGradient>
    <linearGradient
       xlink:href="#e-5"
       id="n"
       gradientUnits="userSpaceOnUse"
       gradientTransform="matrix(0.1,0,0,0.1,5.8,291.2)"
       x1="-6.388"
       y1="22.767"
       x2="-6.388"
       y2="39.522999" />
    <linearGradient
       id="e-5">
      <stop
         offset="0"
         stop-color="#fff"
         id="stop902" />
      <stop
         offset=".5"
         stop-color="#fff"
         stop-opacity=".235"
         id="stop904" />
      <stop
         offset=".75"
         stop-color="#fff"
         stop-opacity=".157"
         id="stop906" />
      <stop
         offset="1"
         stop-color="#fff"
         stop-opacity=".392"
         id="stop908" />
    </linearGradient>
    <linearGradient
       xlink:href="#e-5"
       id="o"
       gradientUnits="userSpaceOnUse"
       gradientTransform="matrix(0.1,0,0,0.1,5.5,292.3)"
       x1="-2.8499999"
       y1="39.396999"
       x2="-2.8499999"
       y2="22.916" />
  </defs>
  <sodipodi:namedview
     pagecolor="#ffffff"
     bordercolor="#666666"
     borderopacity="1"
     objecttolerance="10"
     gridtolerance="10"
     guidetolerance="10"
     inkscape:pageopacity="0"
     inkscape:pageshadow="2"
     inkscape:window-width="1366"
     inkscape:window-height="706"
     id="namedview68"
     showgrid="false"
     inkscape:zoom="13.906433"
     inkscape:cx="-5.1494334"
     inkscape:cy="9.5130977"
     inkscape:window-x="0"
     inkscape:window-y="0"
     inkscape:window-maximized="1"
     inkscape:current-layer="svg66" />
  <linearGradient
     id="a"
     gradientTransform="matrix(.04349113 0 0 .0082353 -1.718936 18.980547)"
     gradientUnits="userSpaceOnUse"
     x1="302.85715"
     x2="302.85715"
     y1="366.64789"
     y2="609.50507">
    <stop
       offset="0"
       stop-opacity="0"
       id="stop2" />
    <stop
       offset=".5"
       id="stop4" />
    <stop
       offset="1"
       stop-opacity="0"
       id="stop6" />
  </linearGradient>
  <radialGradient
     id="b"
     cx="605.71429"
     cy="486.64789"
     gradientTransform="matrix(-.01204859 0 0 .0082353 10.761206 18.980564)"
     gradientUnits="userSpaceOnUse"
     r="117.14286"
     xlink:href="#c" />
  <linearGradient
     id="c">
    <stop
       offset="0"
       id="stop10" />
    <stop
       offset="1"
       stop-opacity="0"
       id="stop12" />
  </linearGradient>
  <radialGradient
     id="d"
     cx="605.71429"
     cy="486.64789"
     gradientTransform="matrix(.01204859 0 0 .0082353 17.238794 18.980564)"
     gradientUnits="userSpaceOnUse"
     r="117.14286"
     xlink:href="#c" />
  <linearGradient
     id="e"
     gradientTransform="matrix(0 .48571543 -.45629666 0 23.651133 .342824)"
     gradientUnits="userSpaceOnUse"
     x1="9.8481627"
     x2="44.18507"
     y1="29.289719"
     y2="26.732151">
    <stop
       offset="0"
       stop-color="#f4f4f4"
       id="stop16" />
    <stop
       offset="1"
       stop-color="#dbdbdb"
       id="stop18" />
  </linearGradient>
  <linearGradient
     id="f"
     gradientTransform="matrix(0 .40540511 -.51351351 0 24.32432 2.269687)"
     gradientUnits="userSpaceOnUse"
     x1="4.8433752"
     x2="39.786461"
     y1="23.277712"
     y2="24.30217">
    <stop
       offset="0"
       stop-color="#fff"
       id="stop21" />
    <stop
       offset="0.13011844"
       stop-color="#fff"
       stop-opacity=".235294"
       id="stop23" />
    <stop
       offset="1"
       stop-color="#fff"
       stop-opacity=".156863"
       id="stop25" />
    <stop
       offset="1"
       stop-color="#fff"
       stop-opacity=".392157"
       id="stop27" />
  </linearGradient>
  <linearGradient
     id="g"
     gradientTransform="matrix(.15797213 -.15797208 .15497786 .15497786 9.974762 8.564422)"
     gradientUnits="userSpaceOnUse"
     x1="39.401215"
     x2="-33.29887"
     y1="-5.301917"
     y2="68.80278">
    <stop
       offset="0"
       stop-color="#90dbec"
       id="stop30" />
    <stop
       offset=".26238"
       stop-color="#55c1ec"
       id="stop32" />
    <stop
       offset=".704952"
       stop-color="#3689e6"
       id="stop34" />
    <stop
       offset="1"
       stop-color="#2b63a0"
       id="stop36" />
  </linearGradient>
  <linearGradient
     id="h"
     gradientTransform="matrix(.15797213 -.15797208 .15497786 .15497786 9.974762 8.564422)"
     gradientUnits="userSpaceOnUse"
     x1="32.325527"
     x2="20.060635"
     y1="5.020115"
     y2="56.921478">
    <stop
       offset="0"
       stop-color="#fff"
       id="stop39" />
    <stop
       offset="1"
       stop-color="#fff"
       stop-opacity="0"
       id="stop41" />
  </linearGradient>
  <g
     transform="translate(-2 -2)"
     id="g50">
    <path
       d="m3.500001 22h21v2h-21z"
       fill="url(#a)"
       opacity=".15"
       id="path44" />
    <path
       d="m3.4999999 22.000085v1.999891c-.6204724.0038-1.4999999-.448075-1.4999999-1.000075 0-.551999.6924-.999816 1.4999999-.999816z"
       fill="url(#b)"
       opacity=".15"
       id="path46" />
    <path
       d="m24.5 22.000085v1.999891c.620472.0038 1.5-.448075 1.5-1.000075 0-.551999-.6924-.999816-1.5-.999816z"
       fill="url(#d)"
       opacity=".15"
       id="path48" />
  </g>
  <path
     d="m22.500038 3.499955c0 3.8955809-.0014 17.000059-.0014 17.000059l-20.998716.000021s0-11.3333863 0-17.00008h21.000054z"
     fill="url(#e)"
     id="path52"
     style="fill:url(#e)" />
  <path
     d="m2.4999999 19.5v-15.0000003h19.0000001v15.0000003z"
     fill="none"
     stroke="url(#f)"
     stroke-linecap="round"
     id="path54"
     style="stroke:url(#f)" />
  <path
     d="m22.500038 3.499955c0 3.8955809-.0014 17.000059-.0014 17.000059l-20.998716.000021s0-11.3333863 0-17.00008h21.000054z"
     fill="none"
     opacity=".3"
     stroke="#000"
     stroke-linejoin="round"
     stroke-width=".999922"
     id="path56" />
  <g
     transform="scale(3.7795275)"
     id="g1547">
    <path
       style="opacity:0.15;fill:url(#j)"
       inkscape:connector-curvature="0"
       id="path924"
       transform="translate(0,-290.6)"
       d="M 5.424,296.47 V 297 c 0.164,0 0.397,-0.12 0.397,-0.265 0,-0.146 -0.18,-0.264 -0.395,-0.264 z" />
    <path
       style="overflow:visible;opacity:0.3;fill:url(#k);fill-rule:evenodd"
       inkscape:connector-curvature="0"
       id="path926"
       transform="translate(0,-290.6)"
       d="m 6.35,296.55 c 0,0.263 -0.71,0.476 -1.587,0.476 -0.877,0 -1.588,-0.213 -1.588,-0.476 0,-0.263 0.71,-0.476 1.587,-0.476 0.877,0 1.588,0.213 1.588,0.476 z"
       overflow="visible" />
    <path
       style="opacity:0.98999999;fill:url(#l)"
       inkscape:connector-curvature="0"
       id="path928"
       transform="translate(0,-290.6)"
       d="m 4.842,293.455 v 0.478 c -0.027,0 -0.053,-0.003 -0.08,-0.003 -0.745,0 -1.35,0.605 -1.35,1.35 0,0.745 0.605,1.35 1.35,1.35 0.715,0 1.305,-0.558 1.347,-1.27 h -0.64 c -0.005,0.042 -0.014,0.082 -0.026,0.12 l -0.004,0.014 c -0.01,0.037 -0.026,0.073 -0.043,0.107 l -0.01,0.018 c -0.017,0.032 -0.037,0.063 -0.06,0.093 l -0.012,0.016 c -0.023,0.03 -0.048,0.057 -0.076,0.082 l -0.014,0.012 c -0.03,0.023 -0.06,0.047 -0.093,0.067 l -0.008,0.004 c -0.032,0.02 -0.066,0.038 -0.1,0.05 l -0.013,0.008 c -0.036,0.013 -0.072,0.023 -0.11,0.03 -0.006,0.003 -0.013,0.004 -0.02,0.005 -0.04,0.007 -0.083,0.012 -0.126,0.012 -0.048,0 -0.095,-0.005 -0.14,-0.015 0,0 -0.002,0 -0.003,-0.002 H 4.61 c -0.043,-0.01 -0.086,-0.023 -0.126,-0.04 l -0.01,-0.004 c -0.04,-0.017 -0.076,-0.037 -0.11,-0.06 l -0.008,-0.004 c -0.035,-0.024 -0.068,-0.052 -0.1,-0.082 l -0.005,-0.007 c -0.03,-0.027 -0.055,-0.06 -0.08,-0.094 l -0.01,-0.012 c -0.02,-0.033 -0.04,-0.067 -0.055,-0.103 l -0.01,-0.02 C 4.081,295.518 4.069,295.479 4.061,295.44 l -0.004,-0.02 c -0.008,-0.043 -0.013,-0.088 -0.013,-0.135 0,-0.05 0.005,-0.097 0.014,-0.143 l 0.002,-0.005 c 0.01,-0.043 0.02,-0.086 0.04,-0.126 l 0.003,-0.01 c 0.017,-0.04 0.037,-0.077 0.06,-0.112 l 0.004,-0.006 c 0.024,-0.035 0.052,-0.068 0.082,-0.098 l 0.006,-0.007 c 0.028,-0.03 0.06,-0.056 0.095,-0.08 l 0.013,-0.01 c 0.033,-0.02 0.068,-0.04 0.104,-0.056 l 0.022,-0.01 c 0.036,-0.014 0.074,-0.026 0.114,-0.034 l 0.02,-0.004 c 0.042,-0.01 0.088,-0.016 0.134,-0.016 0.028,0 0.054,0.002 0.08,0.005 v 0.47 l 1.233,-0.794 z" />
    <path
       inkscape:connector-curvature="0"
       id="path930"
       transform="translate(0,-290.6)"
       d="m 5,294.188 v -0.443 l 0.782,0.506 -0.783,0.5 v -0.4"
       style="color:#000000;overflow:visible;opacity:0.5;isolation:auto;mix-blend-mode:normal;solid-color:#000000;fill:none;stroke:url(#m);stroke-width:0.25999999"
       overflow="visible" />
    <path
       style="opacity:0.5;fill:none;stroke:url(#n);stroke-width:0.25999999"
       inkscape:connector-curvature="0"
       id="path932"
       transform="translate(0,-290.6)"
       d="m 5.936,295.446 a 1.187,1.187 0 0 1 -1.33,1.016 1.187,1.187 0 0 1 -1.026,-1.32 1.187,1.187 0 0 1 1.313,-1.038" />
    <path
       style="opacity:0.5;fill:none;stroke:#002e99;stroke-width:0.25999999;stroke-linecap:round;stroke-linejoin:round"
       inkscape:connector-curvature="0"
       id="path934"
       d="m 4.842,2.805 v 0.478 c -0.027,0 -0.053,-0.003 -0.08,-0.003 -0.745,0 -1.35,0.605 -1.35,1.35 0,0.745 0.605,1.35 1.35,1.35 0.715,0 1.305,-0.558 1.347,-1.27 H 5.469 C 5.464,4.752 5.455,4.792 5.443,4.83 L 5.439,4.844 C 5.429,4.881 5.413,4.917 5.396,4.951 L 5.386,4.969 C 5.369,5.001 5.349,5.032 5.326,5.062 L 5.314,5.079 C 5.291,5.109 5.266,5.135 5.238,5.159 L 5.224,5.172 C 5.194,5.196 5.164,5.219 5.131,5.239 L 5.123,5.244 C 5.091,5.264 5.057,5.28 5.023,5.294 L 5.01,5.299 C 4.974,5.314 4.938,5.323 4.9,5.331 L 4.88,5.334 C 4.84,5.341 4.797,5.346 4.754,5.346 4.706,5.346 4.659,5.341 4.614,5.331 H 4.61 C 4.567,5.321 4.525,5.311 4.485,5.293 L 4.473,5.289 C 4.433,5.271 4.396,5.252 4.361,5.229 L 4.356,5.225 C 4.32,5.201 4.286,5.173 4.256,5.143 L 4.25,5.136 C 4.22,5.106 4.193,5.074 4.17,5.04 L 4.16,5.025 C 4.14,4.992 4.12,4.957 4.103,4.92 L 4.1,4.9 C 4.085,4.864 4.073,4.825 4.064,4.786 L 4.059,4.766 C 4.049,4.724 4.044,4.679 4.044,4.632 4.044,4.582 4.049,4.536 4.059,4.49 V 4.485 C 4.069,4.442 4.082,4.4 4.099,4.359 L 4.103,4.349 C 4.12,4.309 4.14,4.269 4.163,4.235 L 4.168,4.229 C 4.188,4.195 4.218,4.162 4.248,4.131 L 4.254,4.124 C 4.284,4.094 4.316,4.069 4.35,4.044 L 4.362,4.036 C 4.395,4.013 4.43,3.996 4.466,3.979 l 0.02,-0.01 C 4.523,3.955 4.562,3.943 4.601,3.934 L 4.621,3.93 c 0.044,-0.006 0.09,-0.01 0.135,-0.01 0.027,0 0.054,0 0.08,0.004 V 4.396 L 6.073,3.6 Z" />
    <path
       style="opacity:0.5;fill:none;stroke:url(#o);stroke-width:0.25999999"
       inkscape:connector-curvature="0"
       id="path936"
       transform="translate(0,-290.6)"
       d="m 5.996,295.518 h -0.39 c -0.123,0.432 -0.557,0.706 -1.006,0.62 -0.472,-0.09 -0.783,-0.543 -0.697,-1.016 0.087,-0.473 0.538,-0.787 1.012,-0.704" />
  </g>
</svg>
